X:205
T:The Colours of Autumn Jig
R:jig
C:Bruce Osborne - Sept. 2002
Z:abc by bosborne@kos.net
M:6/8
L:1/8
K:Amaj
c/B/|AcA EAE|CEA cBA|GBe gfe|gbg gfe|\
AcA EAE|CEA cBA|GBe gfe|dcB A2:|
|:C/D/|ECE FDF|ECE Ace|eag fec|ecA B2 C/D/|\
ECE FDF|ECE Ace|eag fec|dBG A2:|
